images/ic_token_idai.svg

<svg height="250" viewBox="0 0 250 250" width="250" xmlns="http://www.w3.org/2000/svg"><path d="m250 125c0 69.035156-55.964844 125-125 125s-125-55.964844-125-125 55.964844-125 125-125 125 55.964844 125 125zm0 0" fill="#f8a608"/><g fill="#fff"><path d="m75.425781 65.707031h50.695313c32.753906 0 59.304687 26.550781 59.304687 59.304688 0 32.753906-26.550781 59.304687-59.304687 59.304687h-50.695313zm13.058594 13.054688v92.5h37.636719c25.542968 0 46.25-20.707031 46.25-46.25s-20.707032-46.25-46.25-46.25zm0 0" fill-rule="evenodd"/><path d="m58.761719 117.757812h138.191406v-13.054687h-138.191406zm0 0"/><path d="m58.761719 145.535156h138.191406v-13.054687h-138.191406zm0 0"/></g></svg>

<svg xmlns="http://www.w3.org/2000/svg" xmlns:xlink="http://www.w3.org/1999/xlink" width="250px" height="250px" viewBox="0 0 250 250" version="1.1">
<g id="surface1">
<path style=" stroke:none;fill-rule:nonzero;fill:rgb(97.254902%,65.098041%,3.137255%);fill-opacity:1;" d="M 250 125 C 250 194.035156 194.035156 250 125 250 C 55.964844 250 0 194.035156 0 125 C 0 55.964844 55.964844 0 125 0 C 194.035156 0 250 55.964844 250 125 Z M 250 125 "/>
<path style=" stroke:none;fill-rule:evenodd;fill:rgb(100%,100%,100%);fill-opacity:1;" d="M 75.425781 65.707031 L 126.121094 65.707031 C 158.875 65.707031 185.425781 92.257812 185.425781 125.011719 C 185.425781 157.765625 158.875 184.316406 126.121094 184.316406 L 75.425781 184.316406 Z M 88.484375 78.761719 L 88.484375 171.261719 L 126.121094 171.261719 C 151.664062 171.261719 172.371094 150.554688 172.371094 125.011719 C 172.371094 99.46875 151.664062 78.761719 126.121094 78.761719 Z M 88.484375 78.761719 "/>
<path style=" stroke:none;fill-rule:nonzero;fill:rgb(100%,100%,100%);fill-opacity:1;" d="M 58.761719 117.757812 L 196.953125 117.757812 L 196.953125 104.703125 L 58.761719 104.703125 Z M 58.761719 117.757812 "/>
<path style=" stroke:none;fill-rule:nonzero;fill:rgb(100%,100%,100%);fill-opacity:1;" d="M 58.761719 145.535156 L 196.953125 145.535156 L 196.953125 132.480469 L 58.761719 132.480469 Z M 58.761719 145.535156 "/>
</g>
</svg>
